X:1
T:Title
%%score { ( 1 3 ) | 2 }
L:1/8
M:4/4
K:Ab
V:1 treble nm="Grand Piano"
V:3 treble 
V:2 bass 
V:1
 z4 z2[Q:1/4=88] [A,C][B,D] | [CE][Ec][Ec][Ec] [Ec][CE][CF][CE] | [B,=D][DB][DB][DB] [DB]4 | %3
 c B2 G F G2 F | [CE-]4 E2 z2 | [CE][Ec][Ec][Ec] [Ec][CE][CF][CE] | [B,=D][DB][DB][DB] [DB]4 | %7
 c c2 c =d d2 B | e4 d4 | c e3 A c2 E | [=DF] [DB]2 [DB] [DB]4 | GGGA BBcB | z4 e4 | %13
 cccc ee[EA][EG] |[M:5/4] [DF][EG][FA][FB] [=Ec]6 |[M:4/4] [B,FB] [EFc]2 [DFd] [Ae] [Gc]2 [GB] | %16
[M:3/4] [EA]6 |] %17
V:2
 z4 z2 [A,,E,][A,,E,] | [A,,A,][A,,A,][A,,A,][A,,A,] [A,,A,][A,,A,][A,,A,][A,,A,] | %2
 [B,,A,][B,,A,][B,,A,][B,,A,] [B,,A,]4 | [E,G,D] [E,G,D]2 [E,B,D] [E,G,D] [E,B,D]2 [E,G,D] | %4
 A,,2 =A,,2 [B,,G,]2 [E,A,][E,B,] | [A,,A,][A,,A,][A,,A,][A,,A,] [A,,A,][A,,A,][A,,A,][A,,A,] | %6
 [B,,A,][B,,A,][B,,A,][B,,A,] [B,,A,]4 | [B,A] [B,A]2 [B,A] [B,FA] [B,FA]2 [B,=DA] | [E,E]8 | %9
 [A,EA] [A,CA]3[K:bass] [A,CE] [A,E]2 [C,A,] | [B,,A,] [B,,A,]2 [B,,A,] [B,,A,]4 | %11
 [E,B,D][E,B,D][E,B,D][E,F,D] [E,G,D][E,G,D][E,F,E][E,G,D] | %12
 [A,,A,][K:treble] [A,CA]2 [B,DG] [CEA]2 [B,D]2 | %13
 [A,CE][K:bass][A,E][A,E][A,E] [A,CE][A,CE][C,A,][C,A,] |[M:5/4] [D,A,][D,A,][D,D][D,F,] [C,G,]6 | %15
[M:4/4] D, =A,,2 B,, [E,C] [E,E]2 [E,D] |[M:3/4] [A,C]6 |] %17
V:3
 x8 | x8 | x8 | x8 | A,2 _G,2 D2 CD | x8 | x8 | x8 | G8 | x8 | x8 | x8 | [CA] e2 e z2 E2 | x8 | %14
[M:5/4] x10 |[M:4/4] x8 |[M:3/4] x6 |] %17

